X:7
T:The Model T.
R:jig
C:Allie Bennett & Ashley MacIsaac S0CAN
O:contempory Cape Breton
D:Allie Bennett, It's About Time
Z:Paul Stewart Cranford (P.S.C.), <http://www.cranfordpub.com>
L:1/8
M:6/8
Q:288
K:Emin
A|Bde E2 E|Bde edB|ABd D2 D|Dfe dAF|
Bde E/E/E A|Bde edB|ABd BAF|BED E2:|
|:A|BAB e2 f|gbd edB|BAF d2 e|fad edB|
BAB e2 f|gbd edB|BAF dAF|EFD E2:|
